svgs/arbeitstage.svg

<svg xmlns="http://www.w3.org/2000/svg" viewBox="0 0 192 192"><path d="M44.173 151.865h38.676M44.173 85.149l19.338-10.635m0 0v77.351m59.01-51.568a25.788 25.788 0 0 0-24.522 33.752 25.79 25.79 0 0 0 9.366 12.892 25.791 25.791 0 0 0 15.156 4.924 25.793 25.793 0 0 0 18.232-7.552 25.796 25.796 0 0 0 7.552-18.232 25.796 25.796 0 0 0-7.552-18.232 25.798 25.798 0 0 0-18.232-7.552Z" fill="none" stroke="#000" stroke-width="12" stroke-linecap="round" stroke-linejoin="round"/><path d="M145.44 84.063c-3.82-5.73-10.506-9.549-21.009-9.549h-1.91a25.679 25.679 0 0 0-22.362 12.869 25.676 25.676 0 0 0-3.422 12.914v25.784m35.79-96.689a10.744 10.744 0 0 0 0 21.486 10.74 10.74 0 0 0 10.249-14.069 10.742 10.742 0 0 0-10.249-7.417Zm-73.054 0a10.744 10.744 0 0 0 0 21.486 10.74 10.74 0 0 0 10.249-14.069 10.742 10.742 0 0 0-10.249-7.417Z" fill="none" stroke="#000" stroke-width="12" stroke-linecap="round" stroke-linejoin="round"/><path d="M25.095 16.5a8.599 8.599 0 0 0-6.078 2.517 8.599 8.599 0 0 0-2.517 6.078v141.81a8.6 8.6 0 0 0 4.297 7.444 8.6 8.6 0 0 0 4.298 1.151h141.81a8.6 8.6 0 0 0 7.444-4.297 8.6 8.6 0 0 0 1.151-4.298V25.095a8.6 8.6 0 0 0-4.297-7.444 8.6 8.6 0 0 0-4.298-1.151Z" fill="none" stroke="#000" stroke-width="12" stroke-linecap="round" stroke-linejoin="round"/></svg>

<svg
    xmlns="http://www.w3.org/2000/svg"
    viewBox="0 0 192 192"
    id="vector">
    <path
        id="path"
        d="M 44.173 151.865 L 82.849 151.865 M 44.173 85.149 L 63.511 74.514 M 63.511 74.514 L 63.511 151.865 M 122.521 100.297 C 117.077 100.297 111.77 102.022 107.365 105.222 C 102.961 108.422 99.681 112.936 97.999 118.113 C 96.317 123.291 96.317 128.871 97.999 134.049 C 99.681 139.226 102.961 143.741 107.365 146.941 C 111.77 150.141 117.077 151.865 122.521 151.865 C 129.356 151.865 135.919 149.147 140.753 144.313 C 145.586 139.479 148.305 132.917 148.305 126.081 C 148.305 119.245 145.586 112.683 140.753 107.849 C 135.919 103.016 129.356 100.297 122.521 100.297 Z"
        fill="none"
        stroke="#000000"
        stroke-width="12"
        stroke-linecap="round"
        stroke-linejoin="round"/>
    <path
        id="path_1"
        d="M 145.44 84.063 C 141.62 78.333 134.934 74.514 124.431 74.514 L 122.521 74.514 C 117.99 74.495 113.533 75.675 109.606 77.935 C 105.679 80.196 102.419 83.455 100.159 87.383 C 97.899 91.31 96.718 95.766 96.737 100.297 L 96.737 126.081 M 132.527 29.392 C 129.679 29.392 126.944 30.525 124.93 32.539 C 122.916 34.552 121.784 37.287 121.784 40.135 C 121.784 42.983 122.916 45.718 124.93 47.732 C 126.944 49.746 129.679 50.878 132.527 50.878 C 134.8 50.886 137.018 50.171 138.859 48.839 C 140.701 47.506 142.073 45.623 142.776 43.461 C 143.48 41.3 143.48 38.97 142.776 36.809 C 142.073 34.647 140.701 32.764 138.859 31.432 C 137.018 30.099 134.8 29.385 132.527 29.392 Z M 59.473 29.392 C 56.625 29.392 53.89 30.525 51.876 32.539 C 49.862 34.552 48.73 37.287 48.73 40.135 C 48.73 42.983 49.862 45.718 51.876 47.732 C 53.89 49.746 56.625 50.878 59.473 50.878 C 61.746 50.886 63.964 50.171 65.805 48.839 C 67.647 47.506 69.019 45.623 69.722 43.461 C 70.426 41.3 70.426 38.97 69.722 36.809 C 69.019 34.647 67.647 32.764 65.805 31.432 C 63.964 30.099 61.746 29.385 59.473 29.392 Z"
        fill="none"
        stroke="#000000"
        stroke-width="12"
        stroke-linecap="round"
        stroke-linejoin="round"/>
    <path
        id="path_2"
        d="M 25.095 16.5 C 22.816 16.5 20.628 17.406 19.017 19.017 C 17.406 20.628 16.5 22.816 16.5 25.095 L 16.5 166.905 C 16.5 168.414 16.897 169.896 17.651 171.203 C 18.406 172.509 19.491 173.594 20.797 174.349 C 22.104 175.103 23.586 175.5 25.095 175.5 L 166.905 175.5 C 168.414 175.5 169.896 175.103 171.203 174.349 C 172.509 173.594 173.594 172.509 174.349 171.203 C 175.103 169.896 175.5 168.414 175.5 166.905 L 175.5 25.095 C 175.5 23.586 175.103 22.104 174.349 20.797 C 173.594 19.491 172.509 18.406 171.203 17.651 C 169.896 16.897 168.414 16.5 166.905 16.5 Z"
        fill="none"
        stroke="#000000"
        stroke-width="12"
        stroke-linecap="round"
        stroke-linejoin="round"/>
</svg>
